X:1
T:Engels Pols
T:(Totakt-pols, nr. EJ-8)
S:efter Erik Jensen
R:Totakt-pols
O:Boes, rhus amt, Danmark
N:Lt nr. 10 p CD:n "Totakt-pols" av ke Persson, Ethel Wieslander m fl. Till CD:n finns ett nothfte dr den har beteckningen EJ-8. Danmark|Fler ltar frn Danmark...
M:2/4
L:1/8
K:D
|: d2 (Ad) | f2 (df) | agfe | dcdA | d2 (Ad) | f2 (df) | agfe | e2 d2 :|
|: agfa | gfeg | fedf | (ed) A2 | agfa | gfeg | a2 (Ae) | d2 D2 :|
